svgs/sharp-thin/display-chart-up.svg

<svg xmlns="http://www.w3.org/2000/svg" viewBox="0 0 576 512"><!--! Font Awesome Pro 6.6.0 by @fontawesome - https://fontawesome.com License - https://fontawesome.com/license (Commercial License) Copyright 2024 Fonticons, Inc. --><path d="M16 16l0 384 215.8 0 .3 0 111.7 0 .3 0L560 400l0-384L16 16zM222.6 416L16 416 0 416l0-16L0 16 0 0 16 0 560 0l16 0 0 16 0 384 0 16-16 0-206.6 0 13.3 80 73.2 0 8 0 0 16-8 0-80 0-144 0-80 0-8 0 0-16 8 0 73.2 0 13.3-80zm16.2 0l-13.3 80 125.1 0-13.3-80-98.4 0zM496 80L80 80l0 256 416 0 0-256zM80 64l416 0 16 0 0 16 0 256 0 16-16 0L80 352l-16 0 0-16L64 80l0-16 16 0zm272 64l88 0 8 0 0 8 0 88 0 8-16 0 0-8 0-68.7L325.7 261.7l-5.7 5.7-5.7-5.7L240 187.3 133.7 293.7l-5.7 5.7L116.7 288l5.7-5.7 112-112 5.7-5.7 5.7 5.7L320 244.7 420.7 144 352 144l-8 0 0-16 8 0z"/></svg>

<svg xmlns="http://www.w3.org/2000/svg" viewBox="0 0 576 512"><!--! Font Awesome Pro 6.5.2 by @fontawesome - https://fontawesome.com License - https://fontawesome.com/license (Commercial License) Copyright 2024 Fonticons, Inc. --><path d="M16 16V400H231.8h.3H343.9h.3H560V16H16zM222.6 416H16 0V400 16 0H16 560h16V16 400v16H560 353.4l13.3 80H440h8v16h-8H360 216 136h-8V496h8 73.2l13.3-80zm16.2 0l-13.3 80H350.6l-13.3-80H238.8zM496 80H80V336H496V80zM80 64H496h16V80 336v16H496 80 64V336 80 64H80zm272 64h88 8v8 88 8H432v-8V155.3L325.7 261.7l-5.7 5.7-5.7-5.7L240 187.3 133.7 293.7l-5.7 5.7L116.7 288l5.7-5.7 112-112 5.7-5.7 5.7 5.7L320 244.7 420.7 144H352h-8V128h8z"/></svg>
